Numix/64/actions/go-bottom.svg

<?xml version="1.0" encoding="UTF-8" standalone="no"?>
<svg
   xmlns:dc="http://purl.org/dc/elements/1.1/"
   xmlns:cc="http://creativecommons.org/ns#"
   xmlns:rdf="http://www.w3.org/1999/02/22-rdf-syntax-ns#"
   xmlns:svg="http://www.w3.org/2000/svg"
   xmlns="http://www.w3.org/2000/svg"
   xmlns:sodipodi="http://sodipodi.sourceforge.net/DTD/sodipodi-0.dtd"
   xmlns:inkscape="http://www.inkscape.org/namespaces/inkscape"
   width="64"
   height="64"
   viewBox="0 0 64 64"
   id="svg2"
   version="1.1"
   inkscape:version="0.91 r13725"
   sodipodi:docname="go-bottom.svg">
  <metadata
     id="metadata16">
    <rdf:RDF>
      <cc:Work
         rdf:about="">
        <dc:format>image/svg+xml</dc:format>
        <dc:type
           rdf:resource="http://purl.org/dc/dcmitype/StillImage" />
      </cc:Work>
    </rdf:RDF>
  </metadata>
  <defs
     id="defs14" />
  <sodipodi:namedview
     pagecolor="#ffffff"
     bordercolor="#666666"
     borderopacity="1"
     objecttolerance="10"
     gridtolerance="10"
     guidetolerance="10"
     inkscape:pageopacity="0"
     inkscape:pageshadow="2"
     inkscape:window-width="1366"
     inkscape:window-height="704"
     id="namedview12"
     showgrid="true"
     inkscape:zoom="10.979835"
     inkscape:cx="33.950076"
     inkscape:cy="17.427832"
     inkscape:window-x="0"
     inkscape:window-y="27"
     inkscape:window-maximized="1"
     inkscape:current-layer="svg2">
    <inkscape:grid
       type="xygrid"
       id="grid4147" />
  </sodipodi:namedview>
  <path
     style="fill:#268bd2;fill-rule:evenodd"
     d="M 31.996094,0 C 14.324219,0.00390625 0,14.328125 0,32 0,39.582623 2.6434778,46.544191 7.0507812,52.027344 21,55 40,55 57.003906,51.960938 61.378409,46.487858 64,39.551881 64,32 64,14.324219 49.671875,-0.00390625 31.996094,0 Z"
     id="path4"
     inkscape:connector-curvature="0"
     sodipodi:nodetypes="ssccss" />
  <g
     style="fill:#fff;fill-opacity:.902"
     id="g6">
    <path
       d="M 51.988281 32.625 C 52.046875 30.765625 50.988281 29.097656 49.238281 28.375 C 47.484375 27.652344 45.433594 28.042969 44.113281 29.375 L 35.988281 37.25 L 35.988281 12 L 27.988281 12 L 27.988281 37.25 L 19.863281 29.375 C 18.0625 27.621094 15.160156 27.621094 13.363281 29.375 C 11.5625 31.128906 11.5625 33.996094 13.363281 35.75 L 28.738281 50.625 C 29.601562 51.476562 30.761719 52 31.988281 52 C 33.210938 52 34.371094 51.476562 35.238281 50.625 L 50.613281 35.75 C 51.464844 34.945312 51.949219 33.792969 51.988281 32.625 Z "
       id="path8"
       style="fill:#eaf4fb;fill-opacity:1" />
    <path
       style="fill-rule:evenodd;fill:#eaf4fb;fill-opacity:1"
       d="M 57.011719 51.960938 C 50.9375 59.570312 41.730469 64 31.996094 64 C 22.292969 64 13.113281 59.59375 7.042969 52.027344 "
       id="path10" />
  </g>
</svg>

<svg xmlns="http://www.w3.org/2000/svg" viewBox="0 0 64 64">
 <path d="m 31.996 0 c -17.672 0.004 -31.996 14.328 -31.996 32 0 7.583 2.643 14.544 7.05 20.03 13.949 2.973 32.949 2.973 49.953 -0.066 4.375 -5.473 6.996 -12.409 6.996 -19.961 0 -17.676 -14.328 -32 -32 -32" style="fill:#268bd2;fill-rule:evenodd"/>
 <g style="fill:#fff;fill-opacity:0.902">
  <path d="m 51.988 32.625 c 0.059 -1.859 -1 -3.527 -2.75 -4.25 c -1.754 -0.723 -3.805 -0.332 -5.125 1 l -8.125 7.875 l 0 -25.25 l -8 0 l 0 25.25 l -8.125 -7.875 c -1.801 -1.754 -4.703 -1.754 -6.5 0 c -1.801 1.754 -1.801 4.621 0 6.375 l 15.375 14.875 c 0.863 0.852 2.023 1.375 3.25 1.375 c 1.223 0 2.383 -0.523 3.25 -1.375 l 15.375 -14.875 c 0.852 -0.805 1.336 -1.957 1.375 -3.125 Z" style="fill:#eaf4fb;fill-opacity:1"/>
  <path d="m 57.01 51.961 c -6.074 7.609 -15.281 12.04 -25.02 12.04 c -9.703 0 -18.883 -4.406 -24.953 -11.973" style="fill:#eaf4fb;fill-opacity:1;fill-rule:evenodd"/>
 </g>
</svg>
